X: 99
T:Footy Aygen The Wa'
% Nottingham Music Database
S:Trad, arr Phil Rowe
M:6/8
K:Em
f|"Em"g2e "D"f2d|"Em"e2d B2f|"Em"g2e "D"f2d|"Bm"B3 -B2f|"Em"g2e "D"f2d|\
"C"e2f g2e|"G"dBG "D"A2B|"Em"E3 -E2::
F|"G"G2A B2d|"D"c2A "G"B2A|"Em"G2A B2d|"C"e3 -"B7"e2f|"Em"g2e "D"f2d|\
"C"e2f g2e|"G"dBG "D"A2B|"Em"E3 -E2:|


